X:7472
T:the Whitehaven Volunteers
O:england
M:C|
A:North-West
R:Reel
K:G
dc|\
B2B2 BcAB| G2G2 G2D2| G2B2 d2B2| edcB A2dc|\
B2B2 BcAB| G2G2 G2D2| E2c2 A2F2| G2G4 ::
dc|\
B2d2 d2ef| g2d2 dedc| B2d2 d2B2| AGAB A2dc|\
B2d2 d2ef| gfga g2d2| B2G2 BAGF| G2G4:|
